.storybook/public/story-assets/icons-link_5_64.svg

<svg width="64" height="64" viewBox="0 0 64 64" fill="none" xmlns="http://www.w3.org/2000/svg">
<path fill-rule="evenodd" clip-rule="evenodd" d="M23.4879 4H12C7.58172 4 4 7.58172 4 12V38.5119L30.8105 31.328L23.4879 4ZM4 40.5824V52C4 56.4183 7.58172 60 12 60H38.4931L31.3281 33.2599L4 40.5824ZM40.5636 60H52C56.4183 60 60 56.4183 60 52V25.5773L33.2599 32.7422L40.5636 60ZM60 23.5067V12C60 7.58172 56.4183 4 52 4H25.5585L32.7423 30.8104L60 23.5067Z" fill="#848894"/>
</svg>

<svg xmlns="http://www.w3.org/2000/svg" width="64" height="64" fill="none"><path fill="#848894" fill-rule="evenodd" d="M23.488 4H12a8 8 0 0 0-8 8v26.512l26.81-7.184zM4 40.582V52a8 8 0 0 0 8 8h26.493l-7.165-26.74zM40.564 60H52a8 8 0 0 0 8-8V25.577l-26.74 7.165zM60 23.507V12a8 8 0 0 0-8-8H25.559l7.183 26.81z" clip-rule="evenodd"/></svg>
